X:1
T:The Cry Of The Wild Goose
T:The cry of the wild goose
T:Terry Gilkyson
C:Terry Gilkyson
Z:All Rights Reserved
L:1/8
M:4/4
K:C
V:1 treble 
%%MIDI program 4
V:1
 z4 z2 z A, |:"Am" A,2 E2 E3 E |"Dm" E2 D2 D3- D | A,2 D2 D E2 D |"E7" C2 B,2 B,4 | %5
w: To-|night I heard the|wild goose cry *|wing in north in the|lone- ly sky|
w: |Flip flap hurry~ up|take to~the sky *|wish~I had wings * so|I could fly|
"Am" A,2 E2 E2 EE |"Dm" E2 D2 D3 A, | D2 DD DDED |"Am" C3 A, A,4 | z8 ||"Am" E2 A2 A2 AB | %11
w: tried to sleep but it|warnt no use cause|I am a broth- er to the|old wild goose||My heart knows what the|
w: I hear~the honker and the|blue goose too *|One went to Can- a- da the|other just flew|||
"Dm" c2 A2 A3 B |"Dm7" c2 c2 cdcA |"E7" B2 ^G2 G4 |"Am" A2 A2"Am7" AA A2 |"F" c2 A2"Am" A3 B | %16
w: wild goose knows and|I must go * where the|wild goose goes|wild goose, broth- er goose|which is best a|
w: |||||
"Dm7" c2 c2 c2 cc |"E7" B2 ^G2"Am" A4- | A8- |"F7" A8- |1 A6 A,2 :|2"Am" A8 ||"F7" A6 A,2 |: %23
w: wan- drin foot or a|heart at rest?|||||* My|
w: |||||||
"Am" A,A, E2 EEEE |"Dm" E2 D2 D3 D | A,2 D2 DEED |"E7" C2 B,2 B,4 |"Am" A,2 EE EEEE | %28
w: wo- man was kind * and *|true to me she|thinks she loves me * the|more fool she|she"s got- ta learn * that it|
w: Spring * is com- ing and the|ice will break and|I cant lin- ger for a|wo- mans sake|she'll see a shad- ow pass *|
"Dm" E2 D2 D3 A, | D3 D DDED |"Am" C2 A,2 A,4 | z8 ||"Am" E2 A2 A2 AB ||"Dm" c2 A2 A3 B | %34
w: aint no use to|love the broth- er of the|old wild goose||My heart knows what the|wild goose knows and|
w: o- ver- head she'll|find a feath- er be- *|side my bed||||
"Dm7" c2 c2 cdcA |"E7" B2 ^G2 G4 |"Am" A2 A2"Am7" AA A2 |"F" c2 A2"Am" A3 B |"Dm7" c2 c2 c2 cc | %39
w: I must go * where the|wild goose goes|wild goose broth- er goose|which is best A|wan- drin foot or a|
w: |||||
"E7" B2 ^G2 A4- |3"F7" A8- | A8 :|1 A8- | A8- | A8 |] %45
w: heart at rest?||||||
w: ||||||

